X: 4
T: The Miller Of Droghan
R: reel
M: 4/4
L: 1/8
K: Gmaj
G2 BG DGBG|Eeef gedB|G2 BG dGBA|GEGA BcBA|G2 BG DGBG|Eeef gfeg|fdef dBBA|1 GEGA BcBA:|2 GEGA BA (3Bcd||e~E3 DEB,E|DEGA BcBA|G~E3 DEB,E|DEGA BA (3B^cd|e~E3 DEB,E|DEGA BcBA|G~E3 DEB,E|DEGA BcBA||


Tune 746	Setting 13834

